documentation/images/community-notes-icon.svg

<svg width="24" height="24" viewBox="0 0 24 24" fill="none" xmlns="http://www.w3.org/2000/svg">
<path d="M5.49998 3C7.15998 3 8.49998 4.34 8.49998 6C8.49998 7.66 7.15998 9 5.49998 9C3.83998 9 2.49998 7.66 2.49998 6C2.49998 4.34 3.83998 3 5.49998 3ZM23.75 16.91C23.57 14.9 22.97 13.19 21.94 11.95C20.89 10.7 19.45 10 17.75 10C17.4 10 17.07 10.03 16.74 10.09C16.56 10.63 16.29 11.14 15.94 11.58C16.68 12.04 17.35 12.63 17.93 13.34C18.98 14.64 19.64 16.25 19.99 18H23.84L23.75 16.91V16.91ZM18.5 9C20.16 9 21.5 7.66 21.5 6C21.5 4.34 20.16 3 18.5 3C16.84 3 15.5 4.34 15.5 6C15.5 7.66 16.84 9 18.5 9ZM6.06998 13.34C6.64998 12.63 7.31998 12.04 8.05998 11.58C7.70998 11.14 7.43998 10.63 7.25998 10.09C6.92998 10.03 6.59998 10 6.24998 10C4.54998 10 3.10998 10.7 2.05998 11.95C1.03198 13.19 0.432982 14.9 0.253982 16.91L0.156982 18H4.00998C4.35998 16.25 5.01998 14.64 6.06998 13.34ZM15 8.5C15 6.84 13.66 5.5 12 5.5C10.34 5.5 8.99998 6.84 8.99998 8.5C8.99998 10.16 10.34 11.5 12 11.5C13.66 11.5 15 10.16 15 8.5ZM7.62998 14.6C6.55998 15.92 5.93998 17.75 5.74998 19.91L5.65998 21H18.34L18.25 19.91C18.06 17.75 17.44 15.92 16.37 14.6C15.29 13.25 13.78 12.5 12 12.5C10.22 12.5 8.71998 13.25 7.62998 14.6V14.6Z" fill="#1D9BF0"/>
</svg>

<svg fill="none" height="24" viewBox="0 0 24 24" width="24" xmlns="http://www.w3.org/2000/svg"><path d="m5.49998 3c1.66 0 3 1.34 3 3s-1.34 3-3 3-3-1.34-3-3 1.34-3 3-3zm18.25002 13.91c-.18-2.01-.78-3.72-1.81-4.96-1.05-1.25-2.49-1.95-4.19-1.95-.35 0-.68.03-1.01.09-.18.54-.45 1.05-.8 1.49.74.46 1.41 1.05 1.99 1.76 1.05 1.3 1.71 2.91 2.06 4.66h3.85zm-5.25-7.91c1.66 0 3-1.34 3-3s-1.34-3-3-3-3 1.34-3 3 1.34 3 3 3zm-12.43002 4.34c.58-.71 1.25-1.3 1.99-1.76-.35-.44-.62-.95-.8-1.49-.33-.06-.66-.09-1.01-.09-1.7 0-3.14.7-4.19 1.95-1.028 1.24-1.626998 2.95-1.805998 4.96l-.097 1.09h3.852998c.35-1.75 1.01-3.36 2.06-4.66zm8.93002-4.84c0-1.66-1.34-3-3-3s-3.00002 1.34-3.00002 3 1.34002 3 3.00002 3 3-1.34 3-3zm-7.37002 6.1c-1.07 1.32-1.69 3.15-1.88 5.31l-.09 1.09h12.68002l-.09-1.09c-.19-2.16-.81-3.99-1.88-5.31-1.08-1.35-2.59-2.1-4.37-2.1s-3.28002.75-4.37002 2.1z" fill="#1d9bf0"/></svg>
